X:1
T: Miss Marianne Oliphant (Rossie)
C:
R:Strathspey
Q: 128
K:G
M:4/4
L:1/16
|:D2|G,3B, D3=F EC3 C2B,C|D3F A3c BG3 G2FG|G,3B, D3=F EC3 c3e|d2cB c2BA BG3 G2D2|
G,3B, D3=F EC3 C2B,C|D3F A3c BG3 G2FG|G,3B, D3=F EC3 c3e|d2cB c2BA BG3 G2ga|
bg3 g3b a3d fa3|g3f agfe fB3 B2cd|c3e g3c B3d g3B|A3e dF3 G4 G2ga|
b2ag g2ab a3d fa3|g3f agfe fB3 B3d|c3c' a3c B3d g3B|Aa3 d3f g4 G2:|
